src/categories-icons-sprite/categories/svg-cat-sport-water.svg

<svg width="27" height="27" viewBox="0 0 27 27" fill="none" xmlns="http://www.w3.org/2000/svg">
<path class="p-F03800" d="M11.1611 23.4675C8.58829 25.3468 5.33297 26.0962 2.15593 25.4698L1.64135 25.3579L1.52929 24.8433C0.903073 21.6663 1.65248 18.411 3.53176 15.8381L6.78708 16.8562L10.1431 20.2122L11.1611 23.4675Z" fill="#5FBEFF"/>
<path class="p-CD0000" d="M10.1444 20.212L11.1624 23.4673C8.58951 25.3466 5.33419 26.096 2.15715 25.4695L1.64258 25.3577L8.46632 18.5339L10.1444 20.212Z" fill="#4D98CB"/>
<path class="p-F03800" d="M23.4671 11.1618L20.2118 10.1439L16.8557 6.78789L15.8379 3.53258C18.4108 1.6533 21.6661 0.903684 24.8431 1.53011L25.3577 1.64197L25.4695 2.15654C26.096 5.33358 25.3463 8.5889 23.4671 11.1618Z" fill="#5FBEFF"/>
<path class="p-CD0000" d="M20.212 10.1441L18.5342 8.46608L25.3579 1.64233L25.4698 2.15691C26.0962 5.33395 25.3466 8.58927 23.4673 11.1621L20.212 10.1441Z" fill="#4D98CB"/>
<path class="p-FF641A" d="M22.3259 12.5044L12.5039 22.3261C12.0789 22.7513 11.6202 23.1205 11.1616 23.4673L3.53223 15.838C3.87912 15.3794 4.24826 14.9207 4.67343 14.4957L14.4952 4.67371C14.9204 4.24854 15.3789 3.8794 15.8377 3.53271L23.4669 11.1619C23.1202 11.6206 22.751 12.0792 22.3259 12.5044Z" fill="#A1D1FD"/>
<path class="p-F03800" d="M22.3255 12.5042L12.5035 22.326C12.0786 22.7512 11.6198 23.1203 11.1613 23.4672L7.34668 19.6526L19.6519 7.34717L23.4665 11.1618C23.1198 11.6205 22.7507 12.079 22.3255 12.5042Z" fill="#58ADE5"/>
<path class="p-575F64" d="M17.4149 9.58465C16.4865 8.65623 14.1933 9.45035 13.2647 10.3788L10.3784 13.2653C9.44996 14.1937 8.65563 16.4869 9.58425 17.4153C10.5127 18.3439 12.8058 17.5498 13.7344 16.6212L16.6208 13.7348C17.5492 12.8062 18.3433 10.5133 17.4149 9.58465Z" fill="#58ADE5"/>
<path class="p-76E2F8" d="M24.4517 15.5025C25.377 14.5772 25.377 13.0718 24.4517 12.1465L23.333 13.265C23.6418 13.5736 23.6418 14.0752 23.333 14.3838L22.2144 15.5023C21.9058 15.8111 21.4043 15.8111 21.0957 15.5023L19.9771 16.6211C20.2857 16.9297 20.2857 17.431 19.9771 17.7396L17.7398 19.9771C17.4313 20.2857 16.9297 20.2857 16.6211 19.9771L15.5025 21.0957C15.8111 21.4043 15.8111 21.9056 15.5025 22.2144L14.3838 23.333C14.0752 23.6416 13.5738 23.6416 13.2652 23.333L12.1465 24.4517C13.0718 25.3768 14.5772 25.3768 15.5025 24.4517L16.6213 23.333C17.0524 22.9016 17.2743 22.3438 17.3033 21.7779C17.8694 21.7487 18.4272 21.527 18.8586 21.0957L21.0959 18.8584C21.527 18.427 21.7489 17.8692 21.7779 17.3033C22.344 17.2741 22.9018 17.0524 23.3332 16.6211L24.4517 15.5025Z" fill="#65B3E7"/>
<path class="p-9BFCFF" d="M13.7352 3.66699L14.8537 2.54824C13.9284 1.62292 12.423 1.62292 11.4977 2.54824L10.3791 3.66699C9.94778 4.09814 9.72613 4.65617 9.69688 5.22204C9.13101 5.25129 8.57318 5.47294 8.14183 5.90429L5.90433 8.14159C5.47318 8.57294 5.25133 9.13077 5.22228 9.69663C4.65621 9.72589 4.09838 9.94753 3.66703 10.3789L2.54848 11.4976C1.62316 12.4228 1.62316 13.9282 2.54848 14.8535L3.66703 13.7349C3.35845 13.4264 3.35845 12.9248 3.66703 12.6162L4.78578 11.4976C5.09436 11.1891 5.59575 11.1891 5.90433 11.4976L7.02308 10.3789C6.7145 10.0703 6.7145 9.56892 7.02308 9.26034L9.26038 7.02304C9.56896 6.71446 10.0703 6.71446 10.3791 7.02304L11.4977 5.90429C11.1891 5.59571 11.1891 5.09432 11.4977 4.78574L12.6164 3.66699C12.925 3.35821 13.4264 3.35821 13.7352 3.66699Z" fill="#5FBEFF"/>
<path class="p-32393F" d="M9.58496 17.4156L17.4156 9.58496C18.344 10.5136 17.5499 12.8065 16.6215 13.7351L13.7349 16.6215C12.8065 17.5499 10.5134 18.3442 9.58496 17.4156Z" fill="#4D98CB"/>
<path class="p-D3D3D8" d="M3.99121 5.11L5.10996 3.99146L23.0083 21.8898L21.8898 23.0086L3.99121 5.11Z" fill="#B9DFFC"/>
<path class="p-BABAC0" d="M12.9404 14.0594L14.059 12.9407L23.0082 21.8899L21.8896 23.0086L12.9404 14.0594Z" fill="#A1D1FD"/>
<path class="p-32393F" d="M22.95 26.306L20.2119 23.568L23.568 20.2119L26.306 22.95C27.2314 23.8753 27.2314 25.3807 26.306 26.306C25.3807 27.2314 23.8753 27.2314 22.95 26.306Z" fill="#4D98CB"/>
<path class="p-575F64" d="M3.43206 6.78811L0.693993 4.05004C-0.231331 3.12472 -0.231331 1.61932 0.693993 0.693993C1.61932 -0.231331 3.12472 -0.231331 4.05004 0.693993L6.78811 3.43206L3.43206 6.78811Z" fill="#58ADE5"/>
</svg>

<svg width="27" height="27" fill="none" xmlns="http://www.w3.org/2000/svg"><path class="p-F03800" d="M11.161 23.468a11.49 11.49 0 01-9.005 2.002l-.515-.112-.112-.515a11.492 11.492 0 012.003-9.005l3.255 1.018 3.356 3.356 1.018 3.256z" fill="#5FBEFF"/><path class="p-CD0000" d="M10.144 20.212l1.018 3.255a11.49 11.49 0 01-9.005 2.003l-.514-.112 6.823-6.824 1.678 1.678z" fill="#4D98CB"/><path class="p-F03800" d="M23.467 11.162l-3.255-1.018-3.356-3.356-1.018-3.255a11.49 11.49 0 019.005-2.003l.515.112.111.515a11.49 11.49 0 01-2.002 9.005z" fill="#5FBEFF"/><path class="p-CD0000" d="M20.212 10.144l-1.678-1.678 6.824-6.824.112.515a11.49 11.49 0 01-2.003 9.005l-3.255-1.018z" fill="#4D98CB"/><path class="p-FF641A" d="M22.326 12.504l-9.822 9.822a12.71 12.71 0 01-1.342 1.141l-7.63-7.629c.347-.459.716-.917 1.141-1.342l9.822-9.822a12.7 12.7 0 011.343-1.141l7.629 7.629a12.72 12.72 0 01-1.141 1.342z" fill="#A1D1FD"/><path class="p-F03800" d="M22.326 12.504l-9.822 9.822c-.425.425-.884.794-1.343 1.141l-3.814-3.814L19.652 7.347l3.814 3.815c-.346.458-.715.917-1.14 1.342z" fill="#58ADE5"/><path class="p-575F64" d="M17.415 9.585c-.928-.929-3.222-.135-4.15.794l-2.887 2.886c-.928.929-1.722 3.222-.794 4.15.929.929 3.222.135 4.15-.794l2.887-2.886c.928-.929 1.722-3.222.794-4.15z" fill="#58ADE5"/><path class="p-76E2F8" d="M24.452 15.502a2.376 2.376 0 000-3.356l-1.119 1.119a.791.791 0 010 1.119l-1.119 1.118a.791.791 0 01-1.118 0l-1.119 1.12a.791.791 0 010 1.118l-2.237 2.237a.792.792 0 01-1.119 0l-1.118 1.119a.792.792 0 010 1.118l-1.12 1.119a.792.792 0 01-1.118 0l-1.119 1.119c.926.925 2.431.925 3.356 0l1.12-1.119c.43-.431.652-.99.681-1.555a2.355 2.355 0 001.556-.682l2.237-2.238c.431-.431.653-.989.682-1.555a2.355 2.355 0 001.555-.682l1.119-1.118z" fill="#65B3E7"/><path class="p-9BFCFF" d="M13.735 3.667l1.119-1.119a2.376 2.376 0 00-3.356 0l-1.119 1.119c-.431.431-.653.99-.682 1.555-.566.03-1.124.25-1.555.682L5.904 8.142c-.43.43-.653.989-.682 1.555-.566.029-1.124.25-1.555.682l-1.119 1.119a2.375 2.375 0 000 3.356l1.119-1.12a.792.792 0 010-1.118l1.119-1.118a.792.792 0 011.118 0l1.12-1.12a.791.791 0 010-1.118L9.26 7.023a.792.792 0 011.12 0l1.118-1.119a.791.791 0 010-1.118l1.118-1.119a.791.791 0 011.12 0z" fill="#5FBEFF"/><path class="p-32393F" d="M9.585 17.416l7.83-7.831c.929.929.135 3.221-.793 4.15l-2.887 2.887c-.928.928-3.222 1.722-4.15.794z" fill="#4D98CB"/><path class="p-D3D3D8" d="M3.991 5.11L5.11 3.991 23.008 21.89l-1.118 1.119L3.99 5.11z" fill="#B9DFFC"/><path class="p-BABAC0" d="M12.94 14.06l1.119-1.12 8.95 8.95-1.12 1.119-8.949-8.95z" fill="#A1D1FD"/><path class="p-32393F" d="M22.95 26.306l-2.738-2.738 3.356-3.356 2.738 2.738c.925.925.925 2.43 0 3.356a2.375 2.375 0 01-3.356 0z" fill="#4D98CB"/><path class="p-575F64" d="M3.432 6.788L.694 4.05a2.376 2.376 0 010-3.356 2.376 2.376 0 013.356 0l2.738 2.738-3.356 3.356z" fill="#58ADE5"/></svg>
